X: 07046
T: The GREEN GARAGE
C: Bob McQuillen 8 Feb 89
B: Bob's Note Book 7 #46
%R: jig
Z: 2020 John Chambers <jc:trillian.mit.edu>
M: 6/8
L: 1/8
K: G
|:GBA GDG | BdB A2G | FGA DFE | DFA cBA |\
| GBA GDG | BdB A2G | FGA DFA |1 cBA B2G :|2 cBA G3 |]
|:GBd gba | gfg a2b | geg dBd | cBc AFD |\
| GBd gba | gfg aga | bge dBG | ABA G3 :|
%%begintext align
%% Over in Exeter, N.H., Wally
%% Godet has a good-size garage/workshop with a nice
%% stove in it, and every Thursday night a great gang of
%% musicians and listeners gather there for a wonderful
%% evening of music together. It's a real good time!
%%endtext
%%begintext align
%% The G.G.G.*:
%%   Wally Godet   Clarence Bessette   Joe Pomerleau   Claire Mattin   George Vigneau
%%   Smokey   Dick Lawler   Bill Wadleigh   Pete Laszlo   Paul Boucher
%%   Art Lewis   Ottie Lowther   Ryan Cole   Marshall Merrill   Ray Patch
%%   * G.G.G? The GREEN GARAGE GANG, of course! (and my best wishes to you all !!)
%%endtext

%%sep 1 1 500

%%sep 1 1 500

